color/xmo.svg

<!-- Generated by IcoMoon.io -->
<svg version="1.1" xmlns="http://www.w3.org/2000/svg" width="32" height="32" viewBox="0 0 32 32">
<title>xmo</title>
<path fill="#f60" d="M32 16c0 8.837-7.163 16-16 16s-16-7.163-16-16c0-8.837 7.163-16 16-16s16 7.163 16 16z"></path>
<path fill="#fff" d="M28 16c0 6.628-5.372 12-12 12s-12-5.372-12-12c0-2.681 0.881-5.156 2.362-7.153l1.96 1.96c-0.998 1.452-1.594 3.248-1.594 5.183 0 0.004 0 0.007 0 0.011v-0.001c0 5.11 4.153 9.262 9.263 9.262s9.262-4.153 9.262-9.262c-0.001-1.939-0.597-3.738-1.615-5.226l0.021 0.032 1.96-1.96c1.486 1.96 2.381 4.439 2.381 7.128 0 0.009 0 0.018-0 0.027v-0.001z"></path>
<path fill="#fff" d="M22.637 16c-0.004 3.664-2.973 6.633-6.637 6.637h-0c-3.664-0.003-6.634-2.973-6.638-6.637v-0c0-1.153 0.3-2.287 0.872-3.29l5.766 5.764 5.766-5.766c0.548 0.945 0.872 2.080 0.872 3.29 0 0.001 0 0.001 0 0.002v-0z"></path>
<path fill="#fff" d="M23.847 6.925l-7.847 7.837-7.847-7.837c2.079-1.817 4.819-2.925 7.817-2.925 0.011 0 0.021 0 0.032 0h-0.002c3 0 5.738 1.097 7.847 2.925z"></path>
</svg>

<svg width="32" height="32" viewBox="0 0 32 32" xmlns="http://www.w3.org/2000/svg"><g fill="none"><circle cx="16" cy="16" r="16" fill="#F60"/><g fill="#FFF"><path d="M28 16c0 6.628-5.372 12-12 12S4 22.628 4 16c0-2.681.881-5.156 2.362-7.153l1.96 1.96A9.222 9.222 0 006.728 16c0 5.11 4.153 9.262 9.263 9.262 5.109 0 9.262-4.153 9.262-9.262a9.272 9.272 0 00-1.594-5.194l1.96-1.96A11.86 11.86 0 0128 16"/><path d="M22.637 16A6.644 6.644 0 0116 22.637 6.644 6.644 0 019.362 16c0-1.153.3-2.287.872-3.29L16 18.474l5.766-5.766A6.644 6.644 0 0122.638 16"/><path d="M23.847 6.925L16 14.762l-5.981-5.971-1.866-1.866A11.907 11.907 0 0116 4c3 0 5.738 1.097 7.847 2.925"/></g></g></svg>
